X:1
T:Title
%%score { ( 1 3 ) | 2 }
L:1/8
M:4/4
K:Bb
V:1 treble nm="Grand Piano"
V:3 treble 
V:2 bass 
V:1
 z4 z2 z[Q:1/4=96] [DF] | [DB][DB][Ec][Fd] [Ec] [DB]2 [DF] | [EG][GB][FA][EG] [DF]3 [DF] | %3
 [DB][DB][Ec][Fd] [Ec] [DB]2 [Fd] | [=EG][EA][EB][Ec] c3 c | c=Bcd e e2 [FA] | [FB][FB]cc d3 [DF] | %7
 [EG][GB][FA][EG] [DF] [FB]3 |[M:7/8] [Fd]2 [Ec]2 [DB]3 |[M:1/8] [DB] |[M:4/4] c>c cd cAGF | %11
 [DB]<[DB] [FB]>c d3 [Fd] | [=Ed][Ec][Ec][EG] [Ed] [Ec]3 | c2 d2 e2 FF | d6 z2 | [Ge]6- [Ge][Ge] | %16
 [EG][GB][FA][EG] [DF] [FB]3 |[M:15/8] [Fd]2 [Ec]-[Ec] [DB]2- [DB] z2 z6 |] %18
V:2
 z4 z2 z [B,,B,] | [B,,F,][B,,F,][B,,B,][B,,B,] [B,,B,] [B,,B,]2 [B,,B,] | %2
 [E,B,][E,B,][E,B,][E,B,] [B,,B,]3 [B,,B,] | %3
 [B,,F,][B,,F,][B,,B,][B,,B,] [B,,B,] [B,,B,]2 [B,,B,] | %4
 [C,B,][C,A,][C,G,][C,B,] [F,A,F]3 [F,A,F] | [F,A,F][F,_A,F][F,=A,F][F,B,F] [F,CF] [F,CF]2 [E,C] | %6
 [D,B,][D,B,][K:treble][F,A,F][F,A,F] [B,F]3[K:bass] [B,,B,] | %7
 [E,B,][E,B,][E,B,][E,B,] [B,,B,] [D,B,]3 |[M:7/8] [F,B,]2 [F,A,]2 [B,,B,]3 |[M:1/8] [B,,B,] | %10
[M:4/4] [F,A,F]>[F,A,F] [F,A,F][F,B,F] [F,A,F][F,CE][F,B,E][F,A,E] | %11
 [B,,B,]<[B,,F,] [D,B,]>[K:treble][F,A,F] [B,F]3[K:bass] [B,,B,] | %12
 [C,B,][C,B,][C,B,][C,B,] [C,B,] [C,B,]3 | [F,A,F]2 [F,B,F]2 [F,CF]2 z2 | %14
 z2 [B,,B,]>[B,,B,] [B,,B,]2 [D,B,][D,B,] | [E,B,]6- [E,B,][E,B,] | %16
 [E,B,][E,B,][E,B,][E,B,] [B,,B,] [D,B,]3 | %17
[M:15/8] [F,B,]2 [F,A,]-[F,A,] [B,,B,]2- [B,,B,] z2 z6 |] %18
V:3
 x8 | x8 | x8 | x8 | x8 | x8 | x8 | x8 |[M:7/8] x7 |[M:1/8] x |[M:4/4] x8 | x8 | x8 | x8 | %14
 z2 F>F F2 [_Af][Af] | x8 | x8 |[M:15/8] x15 |] %18

